icons/dbeaver-light.svg

<svg width="256" height="256" viewBox="0 0 256 256" fill="none" xmlns="http://www.w3.org/2000/svg">
<path d="M196 0H60C26.8629 0 0 26.8629 0 60V196C0 229.137 26.8629 256 60 256H196C229.137 256 256 229.137 256 196V60C256 26.8629 229.137 0 196 0Z" fill="#F4F2ED"/>
<path d="M120.656 14.8118H135.894C179.085 19.2624 210.527 40.7658 230.21 79.3327C236.077 92.2169 239.588 105.656 240.74 119.656V134.894C236.29 178.085 214.786 209.527 176.219 229.21C163.335 235.077 149.896 238.588 135.894 239.74H120.658C77.4675 235.29 46.0253 213.786 26.335 175.22C20.4681 162.335 16.964 148.896 15.8117 134.894V119.658C20.2624 76.4676 41.7657 45.0253 80.3327 25.335C93.2169 19.4681 106.656 15.964 120.656 14.8118Z" fill="#382A24"/>
<path d="M214.752 126.377C214.268 114.388 211.133 103.182 205.344 92.772C206.5 89.3137 206.884 85.6439 206.468 82.0213C205.543 79.724 203.828 78.4589 201.312 78.2095C197.435 77.9869 193.55 77.9134 189.666 77.9893C190.469 77.6252 191.364 77.3995 192.353 77.3139C187.274 69.6335 180.906 62.8884 173.531 57.3761C164.096 49.596 153.189 45.7133 140.824 45.7279C131.039 45.9281 121.923 48.5366 113.49 53.5643C95.6343 63.7763 80.8515 77.3631 69.1269 94.343C65.4862 94.7616 61.8238 94.9837 58.154 95.011C39.1063 92.0184 33.5798 99.3434 41.5728 116.969C44.8044 123.428 47.7931 130.005 50.5324 136.687C50.1264 142.057 49.8279 147.431 49.6368 152.815C43.8376 162.171 38.3815 171.736 33.2794 181.49C32.9809 182.087 32.6824 182.087 32.3838 181.49C17.7649 154.095 14.5502 125.416 22.7489 95.4588C35.0725 58.6485 59.6467 34.0742 96.457 21.7507C136.427 11.2366 171.975 19.448 203.104 46.3978C231.61 74.2558 242.739 107.939 236.488 147.438C231.369 173 219.046 194.282 199.521 211.291C198.538 212.152 197.493 212.749 196.385 213.084C193.591 204.749 194.11 196.615 197.95 188.666C203.626 179.396 208.142 169.463 211.395 159.091C214.595 148.319 215.711 137.419 214.752 126.377Z" fill="#E1D7CB"/>
<path d="M173.531 57.3762C180.906 62.8885 187.274 69.6337 192.353 77.314C191.426 77.3846 190.517 77.6124 189.666 77.9876C181.994 78.509 174.442 80.1703 167.26 82.917C160.241 83.2574 153.223 83.4776 146.199 83.585C144.415 84.3095 142.622 84.3878 140.824 83.8126C135.767 83.5996 131.585 81.579 128.272 77.7618C123.303 74.7256 118.075 74.1285 112.594 75.9688C108.717 78.6283 107.297 82.2853 108.335 86.949C110.716 91.1794 111.385 95.6592 110.355 100.394C109.927 101.112 109.551 101.86 109.23 102.633C96.7724 114.033 85.6494 126.811 76.075 140.721C73.2296 145.666 70.9745 150.928 69.3562 156.399C68.4606 164.178 71.6735 169.476 78.9911 172.313C83.0137 173.911 87.2315 174.966 91.5331 175.449C87.9507 178.172 83.9114 179.068 79.4389 178.136C73.7841 177.147 68.2851 175.413 63.0852 172.981C57.7242 182.653 52.7168 192.517 48.0731 202.553C45.0839 199.185 42.1707 195.75 39.3356 192.25C39.1887 191.975 39.1118 191.667 39.1118 191.355C39.1118 191.042 39.1887 190.735 39.3356 190.459C43.154 181.48 47.3381 172.66 51.8776 164.023C54.2112 168.153 57.5752 170.92 61.9621 172.313C58.4489 168.943 56.2791 164.831 55.4618 159.989C54.6407 152.298 55.4052 144.521 57.708 137.137C66.6967 108.303 82.9012 84.4752 106.323 65.6677C116.428 58.4501 127.628 53.8211 139.928 51.7732C151.583 50.9778 162.789 52.8399 173.533 57.378L173.531 57.3762Z" fill="#FCFCFC"/>
<path d="M140.824 83.8125C134.544 86.0483 128.408 88.6679 122.449 91.6563C118.358 94.7013 114.396 97.9158 110.574 101.291C110.475 101.166 110.404 101.021 110.366 100.866C110.328 100.711 110.325 100.55 110.355 100.394C111.385 95.6591 110.716 91.1793 108.335 86.9489C107.297 82.2835 108.717 78.6301 112.594 75.9688C118.075 74.1285 123.303 74.7255 128.272 77.7618C131.585 81.579 135.767 83.5996 140.824 83.8125Z" fill="#382A24"/>
<path d="M189.666 77.9875C193.547 77.9111 197.43 77.9875 201.313 78.2096C203.83 78.459 205.543 79.7241 206.468 82.0213C206.884 85.6439 206.5 89.3137 205.344 92.7721C202.599 100.436 198.411 107.227 192.803 113.165C188.876 115.817 184.695 116.265 180.251 114.508C170.424 111.578 162.582 105.977 156.729 97.6997C154.865 92.9996 156.132 89.3372 160.541 86.7287C162.78 85.4544 165.019 84.1893 167.26 82.9169C174.442 80.1703 181.994 78.5089 189.666 77.9875Z" fill="#372923"/>
<path d="M167.26 82.9169C165.021 84.1893 162.78 85.4544 160.541 86.7286C156.132 89.3371 154.865 92.9996 156.729 97.6996C162.582 105.977 170.424 111.58 180.251 114.508C184.695 116.265 188.876 115.817 192.801 113.165C198.411 107.227 202.599 100.437 205.343 92.772C211.131 103.182 214.268 114.388 214.752 126.375C212.584 133.395 209.656 140.158 206.02 146.542C204.322 148.99 202.449 151.311 200.417 153.489C198.262 154.969 196.17 156.54 194.146 158.196L193.696 157.522C195.731 150.008 196.263 142.166 195.262 134.446C194.876 132.385 194.118 130.412 193.023 128.623C192.329 138.579 189.744 148.312 185.407 157.3C179.633 168.131 170.751 171.941 158.748 168.721C140.8 163.6 125.045 154.712 111.471 142.062C112.336 147.451 113.842 152.717 115.956 157.748C118.723 166.096 119.469 174.608 118.195 183.283C117.778 185.133 117.178 186.936 116.404 188.666C110.348 198.53 105.102 208.869 100.718 219.582C99.255 223.529 98.0582 227.569 97.136 231.676C97.0249 231.899 96.8668 232.094 96.6725 232.249C96.4782 232.404 96.2525 232.515 96.0111 232.574C77.3401 226.712 61.3541 216.71 48.0713 202.551C52.7151 192.515 57.7225 182.651 63.0834 172.979C68.2833 175.411 73.7823 177.145 79.4371 178.134C83.9096 179.066 87.9489 178.17 91.5313 175.447C87.2297 174.964 83.0119 173.909 78.9893 172.311C71.6717 169.475 68.4588 164.176 69.3544 156.397C70.9727 150.926 73.2278 145.664 76.0732 140.719C85.6484 126.81 96.772 114.033 109.23 102.634C109.551 101.859 109.927 101.113 110.353 100.396C110.323 100.552 110.328 100.713 110.366 100.867C110.404 101.022 110.475 101.167 110.574 101.291C114.396 97.9157 118.358 94.7013 122.449 91.6562C128.408 88.6678 134.544 86.0483 140.824 83.8125C142.622 84.3877 144.413 84.3094 146.199 83.5849C153.231 83.4775 160.248 83.25 167.26 82.9169Z" fill="#887363"/>
<path d="M197.728 162.228C195.249 172.712 191.721 182.919 187.198 192.696C186.251 194.467 184.831 195.663 182.938 196.282L182.49 195.605C184.427 190.221 185.339 184.523 185.179 178.804C183.566 185.521 181.082 192 177.79 198.073C174.35 199.488 170.837 199.708 167.26 198.742C166.149 197.344 165.311 195.75 164.792 194.042C163.639 188.432 162.966 182.734 162.78 177.011C176.988 177.972 188.634 173.042 197.73 162.23L197.728 162.228Z" fill="#FBFBFB"/>
</svg>

<svg xmlns="http://www.w3.org/2000/svg" width="256" height="256" fill="none"><path fill="#F4F2ED" d="M196 0H60C26.863 0 0 26.863 0 60v136c0 33.137 26.863 60 60 60h136c33.137 0 60-26.863 60-60V60c0-33.137-26.863-60-60-60"/><path fill="#382A24" d="M120.656 14.812h15.238c43.191 4.45 74.633 25.954 94.316 64.52q8.801 19.326 10.53 40.324v15.238c-4.45 43.191-25.954 74.633-64.521 94.316-12.884 5.867-26.323 9.378-40.325 10.53h-15.236q-64.787-6.673-94.323-64.52c-5.867-12.885-9.371-26.324-10.523-40.326v-15.236q6.673-64.787 64.52-94.323c12.885-5.867 26.324-9.371 40.324-10.523"/><path fill="#E1D7CB" d="M214.752 126.377c-.484-11.989-3.619-23.195-9.408-33.605a24.9 24.9 0 0 0 1.124-10.75c-.925-2.298-2.64-3.563-5.156-3.812a152 152 0 0 0-11.646-.22q1.204-.547 2.687-.676a80 80 0 0 0-18.822-19.938c-9.435-7.78-20.342-11.663-32.707-11.648-9.785.2-18.901 2.809-27.334 7.836-17.856 10.212-32.638 23.8-44.363 40.779-3.64.419-7.303.64-10.973.668-19.048-2.993-24.574 4.332-16.581 21.958a289 289 0 0 1 8.96 19.718 404 404 0 0 0-.896 16.128 453 453 0 0 0-16.358 28.675q-.448.896-.895 0-21.932-41.094-9.635-86.031c12.324-36.81 36.898-61.385 73.708-73.708 39.97-10.514 75.518-2.303 106.647 24.647 28.506 27.858 39.635 61.541 33.384 101.04q-7.679 38.341-36.967 63.853-1.474 1.291-3.136 1.793c-2.794-8.335-2.275-16.469 1.565-24.418a132.7 132.7 0 0 0 13.445-29.575c3.2-10.772 4.316-21.672 3.357-32.714"/><path fill="#FCFCFC" d="M173.531 57.376a80 80 0 0 1 18.822 19.938 8.2 8.2 0 0 0-2.687.674 77.4 77.4 0 0 0-22.406 4.929c-7.019.34-14.037.56-21.061.668q-2.677 1.089-5.375.228c-5.057-.213-9.239-2.234-12.552-6.051q-7.455-4.553-15.678-1.793c-3.877 2.66-5.297 6.316-4.259 10.98 2.381 4.23 3.05 8.71 2.02 13.445a17.4 17.4 0 0 0-1.125 2.239 223 223 0 0 0-33.155 38.088 73 73 0 0 0-6.719 15.678c-.895 7.779 2.318 13.077 9.635 15.914a48.7 48.7 0 0 0 12.542 3.136c-3.582 2.723-7.622 3.619-12.094 2.687a65 65 0 0 1-16.354-5.155 456 456 0 0 0-15.012 29.572 300 300 0 0 1-8.737-10.303 1.9 1.9 0 0 1 0-1.791 358 358 0 0 1 12.542-26.436c2.333 4.13 5.697 6.897 10.084 8.29-3.513-3.37-5.683-7.482-6.5-12.324a56.6 56.6 0 0 1 2.246-22.852c8.989-28.834 25.193-52.662 48.615-71.47q15.156-10.824 33.605-13.894c11.655-.795 22.861 1.067 33.605 5.605z"/><path fill="#382A24" d="M140.824 83.813a163 163 0 0 0-18.375 7.843 183 183 0 0 0-11.875 9.635 1.11 1.11 0 0 1-.219-.897c1.03-4.735.361-9.215-2.02-13.445-1.038-4.665.382-8.319 4.259-10.98q8.223-2.76 15.678 1.793c3.313 3.817 7.495 5.838 12.552 6.05"/><path fill="#372923" d="M189.666 77.988c3.881-.077 7.764 0 11.647.222 2.517.249 4.23 1.514 5.155 3.811a24.9 24.9 0 0 1-1.124 10.751c-2.745 7.664-6.933 14.455-12.541 20.393-3.927 2.652-8.108 3.1-12.552 1.343q-14.742-4.394-23.522-16.808c-1.864-4.7-.597-8.363 3.812-10.971 2.239-1.275 4.478-2.54 6.719-3.812a77.4 77.4 0 0 1 22.406-4.93"/><path fill="#887363" d="M167.26 82.917c-2.239 1.272-4.48 2.537-6.719 3.812-4.409 2.608-5.676 6.27-3.812 10.97q8.78 12.417 23.522 16.809 6.664 2.635 12.55-1.343c5.61-5.938 9.798-12.728 12.542-20.393 5.788 10.41 8.925 21.616 9.409 33.603a101 101 0 0 1-8.732 20.167 62 62 0 0 1-5.603 6.947 94 94 0 0 0-6.271 4.707l-.45-.674a59.2 59.2 0 0 0 1.566-23.076 17.2 17.2 0 0 0-2.239-5.823 78.6 78.6 0 0 1-7.616 28.677c-5.774 10.831-14.656 14.641-26.659 11.421-17.948-5.121-33.703-14.009-47.277-26.659a68.5 68.5 0 0 0 4.485 15.686q4.15 12.522 2.239 25.535a28.6 28.6 0 0 1-1.791 5.383 214 214 0 0 0-15.686 30.916 94 94 0 0 0-3.582 12.094 1.7 1.7 0 0 1-1.125.898c-18.67-5.862-34.657-15.864-47.94-30.023a456 456 0 0 1 15.012-29.572 65 65 0 0 0 16.354 5.155c4.473.932 8.512.036 12.094-2.687a48.7 48.7 0 0 1-12.542-3.136c-7.317-2.836-10.53-8.135-9.635-15.914a73 73 0 0 1 6.72-15.678 223 223 0 0 1 33.156-38.085q.483-1.163 1.123-2.238a1.1 1.1 0 0 0 .221.895 183 183 0 0 1 11.875-9.635 163 163 0 0 1 18.375-7.844c1.798.576 3.589.497 5.375-.227a654 654 0 0 0 21.061-.668"/><path fill="#FBFBFB" d="M197.728 162.228a160.6 160.6 0 0 1-10.53 30.468q-1.42 2.657-4.26 3.586l-.448-.677a45.8 45.8 0 0 0 2.689-16.801 79.3 79.3 0 0 1-7.389 19.269c-3.44 1.415-6.953 1.635-10.53.669a14.2 14.2 0 0 1-2.468-4.7 101 101 0 0 1-2.012-17.031c14.208.961 25.854-3.969 34.95-14.781z"/></svg>
